;FLAVOR:Marlin
;TIME:385
;Filament used: 0.163975m
;Layer height: 0.2
;MINX:91
;MINY:95
;MINZ:0.2
;MAXX:129
;MAXY:125
;MAXZ:4.8
;Generated with Cura_SteamEngine 4.9.0
M140 S60
M105
M190 S60
M104 S200
M105
M109 S200
M82 ;absolute extrusion mode
; Ender 3 Custom Start G-code
G92 E0 ; Reset Extruder
G28 ; Home all axes
G1 Z2.0 F3000 ; Move Z Axis up little to prevent scratching of Heat Bed
G1 X0.1 Y20 Z0.3 F5000.0 ; Move to start position
G1 X0.1 Y200.0 Z0.3 F1500.0 E15 ; Draw the first line
G1 X0.4 Y200.0 Z0.3 F5000.0 ; Move to side a little
G1 X0.4 Y20 Z0.3 F1500.0 E30 ; Draw the second line
G92 E0 ; Reset Extruder
G1 Z2.0 F3000 ; Move Z Axis up little to prevent scratching of Heat Bed
G1 X5 Y20 Z0.3 F5000.0 ; Move over to prevent blob squish
G92 E0
G92 E0
G1 F1500 E-6.5
;LAYER_COUNT:24
;LAYER:0
M107
G0 F6000 X94.198 Y98.264 Z0.2
;TYPE:SKIRT
G1 F1500 E0
G1 F1200 X94.886 Y97.627 E0.03119
G1 X95.626 Y97.051 E0.06237
G1 X96.412 Y96.539 E0.09357
G1 X97.239 Y96.097 E0.12476
G1 X98.101 Y95.727 E0.15596
G1 X98.991 Y95.431 E0.18716
G1 X99.903 Y95.213 E0.21835
G1 X100.83 Y95.072 E0.24953
G1 X101.701 Y95.013 E0.27857
G1 X102.022 Y95.004 E0.28925
G1 X102.33 Y95 E0.29949
G1 X117.293 Y95 E0.79717
G1 X118.149 Y95.011 E0.82564
G1 X119.085 Y95.065 E0.85682
G1 X120.013 Y95.197 E0.888
G1 X120.927 Y95.409 E0.9192
G1 X121.819 Y95.698 E0.95039
G1 X122.684 Y96.061 E0.98159
G1 X123.514 Y96.497 E1.01277
G1 X124.305 Y97.002 E1.04399
G1 X125.049 Y97.573 E1.07518
G1 X125.742 Y98.205 E1.10638
G1 X126.379 Y98.893 E1.13756
G1 X126.954 Y99.634 E1.16876
G1 X127.465 Y100.42 E1.19994
G1 X127.907 Y101.248 E1.23116
G1 X128.276 Y102.11 E1.26234
G1 X128.571 Y103 E1.29353
G1 X128.789 Y103.912 E1.32472
G1 X128.929 Y104.84 E1.35593
G1 X128.987 Y105.701 E1.38463
G1 X128.996 Y106.021 E1.39528
G1 X129 Y106.33 E1.40556
G1 X128.999 Y113.4 E1.64071
G1 X128.99 Y114.127 E1.66489
G1 X128.939 Y115.064 E1.6961
G1 X128.807 Y115.992 E1.72728
G1 X128.598 Y116.906 E1.75846
G1 X128.311 Y117.799 E1.78966
G1 X127.949 Y118.665 E1.82088
G1 X127.515 Y119.496 E1.85206
G1 X127.011 Y120.287 E1.88325
G1 X126.442 Y121.032 E1.91443
G1 X125.811 Y121.727 E1.94565
G1 X125.124 Y122.365 E1.97684
G1 X124.385 Y122.942 E2.00802
G1 X123.599 Y123.454 E2.03922
G1 X122.773 Y123.897 E2.0704
G1 X121.911 Y124.269 E2.10162
G1 X121.022 Y124.565 E2.13279
G1 X120.11 Y124.785 E2.16399
G1 X119.183 Y124.926 E2.19518
G1 X118.299 Y124.987 E2.22465
G1 X117.978 Y124.996 E2.23533
G1 X117.67 Y125 E2.24557
G1 X102.565 Y124.999 E2.74797
G1 X101.867 Y124.99 E2.77119
G1 X100.931 Y124.938 E2.80237
G1 X100.002 Y124.806 E2.83357
G1 X99.088 Y124.596 E2.86477
G1 X98.195 Y124.309 E2.89596
G1 X97.33 Y123.946 E2.92716
G1 X96.499 Y123.512 E2.95835
G1 X95.708 Y123.008 E2.98954
G1 X94.963 Y122.438 E3.02074
G1 X94.269 Y121.807 E3.05194
G1 X93.632 Y121.12 E3.0831
G1 X93.055 Y120.38 E3.11431
G1 X92.543 Y119.594 E3.14551
G1 X92.1 Y118.767 E3.17671
G1 X91.729 Y117.906 E3.20789
G1 X91.433 Y117.016 E3.23909
G1 X91.214 Y116.104 E3.27029
G1 X91.073 Y115.177 E3.30147
G1 X91.013 Y114.288 E3.33111
G1 X91.004 Y113.955 E3.34219
G1 X91 Y113.658 E3.35207
G1 X91.001 Y106.525 E3.58931
G1 X91.01 Y105.86 E3.61143
G1 X91.063 Y104.924 E3.64261
G1 X91.195 Y103.995 E3.67382
G1 X91.406 Y103.081 E3.70502
G1 X91.694 Y102.189 E3.7362
G1 X92.057 Y101.324 E3.7674
G1 X92.492 Y100.493 E3.7986
G1 X92.996 Y99.703 E3.82976
G1 X93.566 Y98.958 E3.86096
G1 X94.198 Y98.264 E3.89218
G0 F6000 X94.589 Y98.439
G1 F1200 X95.274 Y97.823 E3.92282
G1 X96.01 Y97.27 E3.95344
G1 X96.791 Y96.782 E3.98407
G1 X97.611 Y96.364 E4.01468
G1 X98.465 Y96.019 E4.04532
G1 X99.345 Y95.749 E4.07593
G1 X100.245 Y95.557 E4.10654
G1 X101.159 Y95.443 E4.13718
G1 X101.712 Y95.413 E4.1556
G1 X102.033 Y95.404 E4.16628
G1 X102.33 Y95.4 E4.17616
G1 X117.293 Y95.4 E4.67383
G1 X118.143 Y95.411 E4.7021
G1 X119.062 Y95.464 E4.73272
G1 X119.973 Y95.597 E4.76334
G1 X120.869 Y95.808 E4.79396
G1 X121.743 Y96.096 E4.82456
G1 X122.59 Y96.459 E4.85521
G1 X123.401 Y96.894 E4.88582
G1 X124.171 Y97.398 E4.91643
G1 X124.895 Y97.967 E4.94706
G1 X125.567 Y98.597 E4.97769
G1 X126.182 Y99.282 E5.00831
G1 X126.735 Y100.018 E5.03893
G1 X127.222 Y100.799 E5.06954
G1 X127.639 Y101.62 E5.10017
G1 X127.984 Y102.474 E5.13081
G1 X128.253 Y103.354 E5.16141
G1 X128.445 Y104.255 E5.19205
G1 X128.558 Y105.168 E5.22265
G1 X128.587 Y105.712 E5.24077
G1 X128.596 Y106.032 E5.25142
G1 X128.6 Y106.33 E5.26133
G1 X128.599 Y113.395 E5.49631
G1 X128.59 Y114.122 E5.52049
G1 X128.539 Y115.041 E5.55111
G1 X128.408 Y115.953 E5.58175
G1 X128.198 Y116.849 E5.61236
G1 X127.912 Y117.724 E5.64298
G1 X127.551 Y118.571 E5.6736
G1 X127.117 Y119.383 E5.70422
G1 X126.615 Y120.155 E5.73485
G1 X126.047 Y120.88 E5.76548
G1 X125.419 Y121.553 E5.7961
G1 X124.735 Y122.169 E5.82672
G1 X124 Y122.723 E5.85733
G1 X123.22 Y123.212 E5.88795
G1 X122.4 Y123.631 E5.91858
G1 X121.547 Y123.977 E5.94919
G1 X120.667 Y124.248 E5.97982
G1 X119.767 Y124.441 E6.01043
G1 X118.853 Y124.556 E6.04107
G1 X118.288 Y124.587 E6.05989
G1 X117.967 Y124.596 E6.07057
G1 X117.67 Y124.6 E6.08045
G1 X102.57 Y124.599 E6.58268
G1 X101.872 Y124.59 E6.6059
G1 X100.953 Y124.538 E6.63651
G1 X100.042 Y124.407 E6.66712
G1 X99.146 Y124.197 E6.69773
G1 X98.271 Y123.91 E6.72836
G1 X97.424 Y123.548 E6.759
G1 X96.612 Y123.114 E6.78962
G1 X95.841 Y122.612 E6.82022
G1 X95.116 Y122.044 E6.85085
G1 X94.443 Y121.415 E6.88149
G1 X93.828 Y120.731 E6.91209
G1 X93.274 Y119.996 E6.9427
G1 X92.786 Y119.215 E6.97333
G1 X92.367 Y118.395 E7.00396
G1 X92.021 Y117.542 E7.03457
G1 X91.751 Y116.662 E7.06519
G1 X91.558 Y115.761 E7.09583
G1 X91.444 Y114.848 E7.12644
G1 X91.413 Y114.277 E7.14546
G1 X91.404 Y113.944 E7.15654
G1 X91.4 Y113.658 E7.16605
G1 X91.401 Y106.531 E7.40309
G1 X91.41 Y105.866 E7.42521
G1 X91.462 Y104.946 E7.45586
G1 X91.594 Y104.035 E7.48648
G1 X91.805 Y103.139 E7.51709
G1 X92.092 Y102.264 E7.54772
G1 X92.455 Y101.418 E7.57834
G1 X92.889 Y100.606 E7.60896
G1 X93.392 Y99.835 E7.63958
G1 X93.961 Y99.111 E7.67021
G1 X94.589 Y98.439 E7.7008
G0 F6000 X94.981 Y98.617
G1 F1200 X95.662 Y98.024 E7.73084
G1 X96.394 Y97.494 E7.76089
G1 X97.169 Y97.031 E7.79092
G1 X97.982 Y96.638 E7.82095
G1 X98.827 Y96.318 E7.85101
G1 X99.696 Y96.075 E7.88102
G1 X100.584 Y95.909 E7.91107
G1 X101.723 Y95.813 E7.94908
G1 X102.044 Y95.804 E7.95976
G1 X102.33 Y95.8 E7.96928
G1 X117.293 Y95.8 E8.46695
G1 X118.137 Y95.811 E8.49502
G1 X119.039 Y95.864 E8.52507
G1 X119.932 Y95.996 E8.5551
G1 X120.81 Y96.207 E8.58513
G1 X121.666 Y96.495 E8.61517
G1 X122.493 Y96.857 E8.6452
G1 X123.285 Y97.292 E8.67525
G1 X124.036 Y97.794 E8.7053
G1 X124.739 Y98.361 E8.73533
G1 X125.389 Y98.988 E8.76537
G1 X125.981 Y99.67 E8.79541
G1 X126.511 Y100.401 E8.82544
G1 X126.973 Y101.177 E8.85548
G1 X127.366 Y101.99 E8.88551
G1 X127.684 Y102.835 E8.91554
G1 X127.927 Y103.705 E8.94559
G1 X128.092 Y104.593 E8.97563
G1 X128.187 Y105.723 E9.01334
G1 X128.196 Y106.043 E9.02399
G1 X128.2 Y106.33 E9.03354
G1 X128.199 Y113.39 E9.26835
G1 X128.19 Y114.117 E9.29254
G1 X128.139 Y115.019 E9.32258
G1 X128.008 Y115.913 E9.35264
G1 X127.799 Y116.791 E9.38265
G1 X127.513 Y117.648 E9.4127
G1 X127.152 Y118.476 E9.44275
G1 X126.72 Y119.268 E9.47275
G1 X126.219 Y120.02 E9.50281
G1 X125.653 Y120.724 E9.53285
G1 X125.028 Y121.375 E9.56287
G1 X124.347 Y121.969 E9.59292
G1 X123.616 Y122.5 E9.62297
G1 X122.842 Y122.964 E9.65299
G1 X122.029 Y123.358 E9.68304
G1 X121.185 Y123.678 E9.71306
G1 X120.315 Y123.923 E9.74312
G1 X119.428 Y124.089 E9.77313
G1 X118.277 Y124.187 E9.81156
G1 X117.956 Y124.196 E9.82224
G1 X117.67 Y124.2 E9.83175
G1 X102.575 Y124.199 E10.33381
G1 X101.877 Y124.19 E10.35703
G1 X100.976 Y124.139 E10.38704
G1 X100.082 Y124.007 E10.4171
G1 X99.204 Y123.798 E10.44712
G1 X98.347 Y123.511 E10.47718
G1 X97.52 Y123.15 E10.50719
G1 X96.727 Y122.717 E10.53724
G1 X95.976 Y122.216 E10.56727
G1 X95.272 Y121.65 E10.59731
G1 X94.621 Y121.024 E10.62735
G1 X94.028 Y120.343 E10.65739
G1 X93.498 Y119.612 E10.68742
G1 X93.034 Y118.837 E10.71746
G1 X92.64 Y118.024 E10.74751
G1 X92.32 Y117.18 E10.77753
G1 X92.076 Y116.31 E10.80758
G1 X91.91 Y115.422 E10.83763
G1 X91.813 Y114.267 E10.87618
G1 X91.804 Y113.934 E10.88726
G1 X91.8 Y113.658 E10.89644
G1 X91.801 Y106.536 E11.13332
G1 X91.81 Y105.871 E11.15544
G1 X91.862 Y104.969 E11.18549
G1 X91.994 Y104.076 E11.21551
G1 X92.204 Y103.198 E11.24554
G1 X92.491 Y102.341 E11.2756
G1 X92.853 Y101.514 E11.30563
G1 X93.286 Y100.722 E11.33565
G1 X93.788 Y99.971 E11.36569
G1 X94.355 Y99.267 E11.39576
G1 X94.981 Y98.617 E11.42577
G1 F1500 E4.92577
;MESH:3023_103x.stl
G0 F6000 X102.414 Y105.335
G0 X102.414 Y106.414
G0 X103 Y113
;TYPE:WALL-INNER
G1 F1500 E11.42577
G1 F1200 X117 Y113 E11.89141
G1 X117 Y107 E12.09098
G1 X103 Y107 E12.55662
G1 X103 Y113 E12.75618
G0 F6000 X103.4 Y112.6
;TYPE:WALL-OUTER
G1 F1200 X116.6 Y112.6 E13.19521
G1 X116.6 Y107.4 E13.36816
G1 X103.4 Y107.4 E13.8072
G1 X103.4 Y112.6 E13.98015
G0 F6000 X103.1 Y112.6
G0 X117.4 Y113.4
;TYPE:WALL-INNER
G1 F1200 X102.6 Y113.4 E14.4724
G1 X102.6 Y106.6 E14.69857
G1 X117.4 Y106.6 E15.19082
G1 X117.4 Y113.4 E15.41699
G0 F6000 X117.8 Y113.8
;TYPE:WALL-OUTER
G1 F1200 X102.2 Y113.8 E15.93585
G1 X102.2 Y106.2 E16.18862
G1 X117.8 Y106.2 E16.70748
G1 X117.8 Y113.8 E16.96026
G0 F6000 X117.2 Y113.318
G1 F1500 E10.46026
G0 F6000 X110 Y112.8
G0 X110 Y111.172
G0 X110 Y110.989
;TYPE:WALL-INNER
G1 F1500 E16.96026
G1 F1200 X109.621 Y110.913 E16.97312
G1 X109.301 Y110.699 E16.98592
G1 X109.087 Y110.379 E16.99872
G1 X109.011 Y110 E17.01158
G1 X109.087 Y109.621 E17.02444
G1 X109.301 Y109.301 E17.03724
G1 X109.621 Y109.087 E17.05004
G1 X110 Y109.011 E17.0629
G1 X110.379 Y109.087 E17.07576
G1 X110.699 Y109.301 E17.08856
G1 X110.913 Y109.621 E17.10137
G1 X110.989 Y110 E17.11422
G1 X110.913 Y110.379 E17.12708
G1 X110.699 Y110.699 E17.13988
G1 X110.379 Y110.913 E17.15269
G1 X110 Y110.989 E17.16554
G0 F6000 X110 Y111.396
;TYPE:WALL-OUTER
G1 F1200 X109.466 Y111.29 E17.18365
G1 X109.013 Y110.987 E17.20178
G1 X108.71 Y110.534 E17.2199
G1 X108.604 Y110 E17.23801
G1 X108.71 Y109.466 E17.25612
G1 X109.013 Y109.013 E17.27424
G1 X109.466 Y108.71 E17.29237
G1 X110 Y108.604 E17.31048
G1 X110.534 Y108.71 E17.32859
G1 X110.987 Y109.013 E17.34671
G1 X111.29 Y109.466 E17.36484
G1 X111.396 Y110 E17.38295
G1 X111.29 Y110.534 E17.40105
G1 X110.987 Y110.987 E17.41918
G1 X110.534 Y111.29 E17.43731
G1 X110 Y111.396 E17.45541
G0 F6000 X110 Y110.956
G0 X110 Y110.592
;TYPE:SKIN
G1 F1200 X109.775 Y110.547 E17.46305
G1 X109.582 Y110.418 E17.47077
G1 X109.453 Y110.225 E17.47849
G1 X109.408 Y110 E17.48612
G1 X109.453 Y109.775 E17.49375
G1 X109.582 Y109.582 E17.50147
G1 X109.775 Y109.453 E17.50919
G1 X110 Y109.408 E17.51683
G1 X110.225 Y109.453 E17.52446
G1 X110.418 Y109.582 E17.53218
G1 X110.547 Y109.775 E17.5399
G1 X110.592 Y110 E17.54753
G1 X110.547 Y110.225 E17.55516
G1 X110.418 Y110.418 E17.56288
G1 X110.225 Y110.547 E17.57061
G1 X110 Y110.592 E17.57824
G0 F6000 X109.815 Y110.381
G1 F1200 X109.617 Y110.183 E17.58755
G0 F6000 X109.696 Y109.696
G1 F1200 X110.302 Y110.302 E17.61605
G0 F6000 X110.381 Y109.815
G1 F1200 X110.183 Y109.617 E17.62537
G0 F6000 X110.378 Y109.326
G1 F1500 E11.12537
;MESH:NONMESH
G0 F300 X110.378 Y109.326 Z0.4
G0 F6000 X110.427 Y109.253
G0 X110 Y109.185
G0 X109.689 Y109.249
G0 X109.425 Y109.425
G0 X108.916 Y110.449
G0 X108.916 Y112.8
G0 X103 Y113
;TIME_ELAPSED:35.033527
;LAYER:1
M106 S85
;TYPE:WALL-INNER
;MESH:3023_103x.stl
G1 F1500 E17.62537
G1 F1183 X117 Y113 E18.09101
G1 X117 Y107 E18.29057
G1 X103 Y107 E18.75621
G1 X103 Y113 E18.95577
G0 F7500 X103.4 Y112.6
;TYPE:WALL-OUTER
G1 F1183 X116.6 Y112.6 E19.39481
G1 X116.6 Y107.4 E19.56776
G1 X103.4 Y107.4 E20.00679
G1 X103.4 Y112.6 E20.17975
G0 F7500 X103.1 Y112.6
G0 X117.4 Y113.4
;TYPE:WALL-INNER
G1 F1183 X102.6 Y113.4 E20.672
G1 X102.6 Y106.6 E20.89817
G1 X117.4 Y106.6 E21.39042
G1 X117.4 Y113.4 E21.61658
G0 F7500 X117.8 Y113.8
;TYPE:WALL-OUTER
G1 F1183 X102.2 Y113.8 E22.13544
G1 X102.2 Y106.2 E22.38822
G1 X117.8 Y106.2 E22.90708
G1 X117.8 Y113.8 E23.15985
G0 F7500 X117.2 Y113.318
G1 F1500 E16.65985
G0 F7500 X110 Y112.8
G0 X110 Y111.172
G0 X110 Y110.989
;TYPE:WALL-INNER
G1 F1500 E23.15985
G1 F1183 X109.621 Y110.913 E23.17271
G1 X109.301 Y110.699 E23.18552
G1 X109.087 Y110.379 E23.19832
G1 X109.011 Y110 E23.21118
G1 X109.087 Y109.621 E23.22403
G1 X109.301 Y109.301 E23.23684
G1 X109.621 Y109.087 E23.24964
G1 X110 Y109.011 E23.2625
G1 X110.379 Y109.087 E23.27535
G1 X110.699 Y109.301 E23.28816
G1 X110.913 Y109.621 E23.30096
G1 X110.989 Y110 E23.31382
G1 X110.913 Y110.379 E23.32667
G1 X110.699 Y110.699 E23.33948
G1 X110.379 Y110.913 E23.35228
G1 X110 Y110.989 E23.36514
G0 F7500 X110 Y111.396
;TYPE:WALL-OUTER
G1 F1183 X109.466 Y111.29 E23.38325
G1 X109.013 Y110.987 E23.40137
G1 X108.71 Y110.534 E23.4195
G1 X108.604 Y110 E23.43761
G1 X108.71 Y109.466 E23.45571
G1 X109.013 Y109.013 E23.47384
G1 X109.466 Y108.71 E23.49197
G1 X110 Y108.604 E23.51007
G1 X110.534 Y108.71 E23.52818
G1 X110.987 Y109.013 E23.54631
G1 X111.29 Y109.466 E23.56443
G1 X111.396 Y110 E23.58254
G1 X111.29 Y110.534 E23.60065
G1 X110.987 Y110.987 E23.61878
G1 X110.534 Y111.29 E23.6369
G1 X110 Y111.396 E23.65501
G0 F7500 X110 Y110.956
G0 X110 Y110.592
;TYPE:SKIN
G1 F1183 X109.775 Y110.547 E23.66264
G1 X109.582 Y110.418 E23.67036
G1 X109.453 Y110.225 E23.67808
G1 X109.408 Y110 E23.68572
G1 X109.453 Y109.775 E23.69335
G1 X109.582 Y109.582 E23.70107
G1 X109.775 Y109.453 E23.70879
G1 X110 Y109.408 E23.71642
G1 X110.225 Y109.453 E23.72405
G1 X110.418 Y109.582 E23.73177
G1 X110.547 Y109.775 E23.7395
G1 X110.592 Y110 E23.74713
G1 X110.547 Y110.225 E23.75476
G1 X110.418 Y110.418 E23.76248
G1 X110.225 Y110.547 E23.7702
G1 X110 Y110.592 E23.77783
G0 F7500 X110.322 Y109.728
G1 F1183 X109.728 Y110.323 E23.8058
G0 F7500 X109.592 Y109.893
G1 F1183 X109.894 Y109.591 E23.82
G0 F7500 X109.823 Y109.252
G1 F1500 E17.32
;MESH:NONMESH
G0 F300 X109.823 Y109.252 Z0.6
G0 F7500 X109.806 Y109.162
G0 X109.425 Y109.425
G0 X108.916 Y110.449
G0 X108.916 Y112.8
G0 X103 Y113
;TIME_ELAPSED:47.579054
;LAYER:2
M106 S170
;TYPE:WALL-INNER
;MESH:3023_103x.stl
G1 F1500 E23.82
G1 F1177.4 X117 Y113 E24.28564
G1 X117 Y107 E24.4852
G1 X103 Y107 E24.95085
G1 X103 Y113 E25.15041
G0 F9000 X103.4 Y112.6
;TYPE:WALL-OUTER
G1 F1177.4 X116.6 Y112.6 E25.58944
G1 X116.6 Y107.4 E25.76239
G1 X103.4 Y107.4 E26.20143
G1 X103.4 Y112.6 E26.37438
G0 F9000 X103.1 Y112.6
G0 X117.4 Y113.4
;TYPE:WALL-INNER
G1 F1177.4 X102.6 Y113.4 E26.86663
G1 X102.6 Y106.6 E27.0928
G1 X117.4 Y106.6 E27.58505
G1 X117.4 Y113.4 E27.81122
G0 F9000 X117.8 Y113.8
;TYPE:WALL-OUTER
G1 F1177.4 X102.2 Y113.8 E28.33008
G1 X102.2 Y106.2 E28.58285
G1 X117.8 Y106.2 E29.10171
G1 X117.8 Y113.8 E29.35449
G0 F9000 X117.2 Y113.318
G1 F1500 E22.85449
G0 F9000 X110 Y112.8
G0 X110 Y111.172
G0 X110 Y110.989
;TYPE:WALL-INNER
G1 F1500 E29.35449
G1 F1177.4 X109.621 Y110.913 E29.36734
G1 X109.301 Y110.699 E29.38015
G1 X109.087 Y110.379 E29.39295
G1 X109.011 Y110 E29.40581
G1 X109.087 Y109.621 E29.41867
G1 X109.301 Y109.301 E29.43147
G1 X109.621 Y109.087 E29.44427
G1 X110 Y109.011 E29.45713
G1 X110.379 Y109.087 E29.46999
G1 X110.699 Y109.301 E29.48279
G1 X110.913 Y109.621 E29.49559
G1 X110.989 Y110 E29.50845
G1 X110.913 Y110.379 E29.52131
G1 X110.699 Y110.699 E29.53411
G1 X110.379 Y110.913 E29.54691
G1 X110 Y110.989 E29.55977
G0 F9000 X110 Y111.396
;TYPE:WALL-OUTER
G1 F1177.4 X109.466 Y111.29 E29.57788
G1 X109.013 Y110.987 E29.59601
G1 X108.71 Y110.534 E29.61413
G1 X108.604 Y110 E29.63224
G1 X108.71 Y109.466 E29.65035
G1 X109.013 Y109.013 E29.66847
G1 X109.466 Y108.71 E29.6866
G1 X110 Y108.604 E29.70471
G1 X110.534 Y108.71 E29.72281
G1 X110.987 Y109.013 E29.74094
G1 X111.29 Y109.466 E29.75907
G1 X111.396 Y110 E29.77718
G1 X111.29 Y110.534 E29.79528
G1 X110.987 Y110.987 E29.81341
G1 X110.534 Y111.29 E29.83154
G1 X110 Y111.396 E29.84964
G0 F9000 X110 Y110.956
G0 X110 Y110.592
;TYPE:SKIN
G1 F1177.4 X109.775 Y110.547 E29.85728
G1 X109.582 Y110.418 E29.865
G1 X109.453 Y110.225 E29.87272
G1 X109.408 Y110 E29.88035
G1 X109.453 Y109.775 E29.88798
G1 X109.582 Y109.582 E29.8957
